icons/flag-alt.svg

<svg xmlns="http://www.w3.org/2000/svg" viewBox="0 0 24 24" fill="currentColor">
  <path d="M5.25 5c0-.12956.03991-.17925.05533-.19467C5.32075 4.78991 5.37044 4.75 5.5 4.75h8c.1296 0 .1793.03991.1947.05533.0154.01542.0553.06511.0553.19467v4c0 .12956-.0399.17925-.0553.19467-.0154.01542-.0651.05533-.1947.05533h-1.6257c-.1101-.06358-.238-.09996-.3743-.09996-.1363 0-.2642.03638-.3743.09996H5.25V5Zm5.5 5.75h-5.5V20c0 .4142-.33579.75-.75.75s-.75-.3358-.75-.75V5c0-.47044.16009-.92075.49467-1.25533C4.57925 3.41009 5.02956 3.25 5.5 3.25h8c.4704 0 .9207.16009 1.2553.49467.3346.33458.4947.78489.4947 1.25533v1.55005h3.25c.4704 0 .9207.16008 1.2553.49467.3346.33458.4947.78489.4947 1.25533V11.9c0 .4705-.1601.9208-.4947 1.2554-.3346.3346-.7849.4946-1.2553.4946h-6c-.4704 0-.9207-.16-1.2553-.4946-.3346-.3346-.4947-.7849-.4947-1.2554v-1.15Zm1.5 0v1.15c0 .1296.0399.1793.0553.1947.0154.0154.0651.0553.1947.0553h6c.1296 0 .1793-.0399.1947-.0553.0154-.0154.0553-.0651.0553-.1947V8.30005c0-.12957-.0399-.17926-.0553-.19467-.0154-.01542-.0651-.05533-.1947-.05533h-3.25V9c0 .47044-.1601.92075-.4947 1.2553-.3346.3346-.7849.4947-1.2553.4947h-1.25Z"/>
</svg>

<svg width="24" height="24" viewBox="0 0 24 24" fill="none" xmlns="http://www.w3.org/2000/svg">
<path fill-rule="evenodd" clip-rule="evenodd" d="M5.25 5C5.25 4.87044 5.28991 4.82075 5.30533 4.80533C5.32075 4.78991 5.37044 4.75 5.5 4.75H13.5C13.6296 4.75 13.6793 4.78991 13.6947 4.80533C13.7101 4.82075 13.75 4.87044 13.75 5V7.30005V9C13.75 9.12956 13.7101 9.17925 13.6947 9.19467C13.6793 9.21009 13.6296 9.25 13.5 9.25H11.8743C11.7642 9.18642 11.6363 9.15004 11.5 9.15004C11.3637 9.15004 11.2358 9.18642 11.1257 9.25H5.25V5ZM10.75 10.75H5.25V20C5.25 20.4142 4.91421 20.75 4.5 20.75C4.08579 20.75 3.75 20.4142 3.75 20V5C3.75 4.52956 3.91009 4.07925 4.24467 3.74467C4.57925 3.41009 5.02956 3.25 5.5 3.25H13.5C13.9704 3.25 14.4207 3.41009 14.7553 3.74467C15.0899 4.07925 15.25 4.52956 15.25 5V6.55005H18.5C18.9704 6.55005 19.4207 6.71013 19.7553 7.04472C20.0899 7.3793 20.25 7.82961 20.25 8.30005V11.9C20.25 12.3705 20.0899 12.8208 19.7553 13.1554C19.4207 13.49 18.9704 13.65 18.5 13.65H12.5C12.0296 13.65 11.5793 13.49 11.2447 13.1554C10.9101 12.8208 10.75 12.3705 10.75 11.9V10.75ZM12.25 10.75V11.9C12.25 12.0296 12.2899 12.0793 12.3053 12.0947C12.3207 12.1101 12.3704 12.15 12.5 12.15H18.5C18.6296 12.15 18.6793 12.1101 18.6947 12.0947C18.7101 12.0793 18.75 12.0296 18.75 11.9V8.30005C18.75 8.17048 18.7101 8.12079 18.6947 8.10538C18.6793 8.08996 18.6296 8.05005 18.5 8.05005H15.25V9C15.25 9.47044 15.0899 9.92075 14.7553 10.2553C14.4207 10.5899 13.9704 10.75 13.5 10.75H12.25Z" fill="black"/>
</svg>
